build/img/vk-icon.svg

<svg width="22" height="13" viewBox="0 0 22 13" fill="none" xmlns="http://www.w3.org/2000/svg">
<path fill-rule="evenodd" clip-rule="evenodd" d="M10.4666 12.5546H11.7453C11.7453 12.5546 12.1316 12.5128 12.3288 12.3033C12.5103 12.111 12.5045 11.7498 12.5045 11.7498C12.5045 11.7498 12.4795 10.0589 13.2758 9.80985C14.0609 9.56457 15.0689 11.4441 16.1374 12.1668C16.9453 12.7138 17.5593 12.5938 17.5593 12.5938L20.4161 12.5546C20.4161 12.5546 21.9106 12.4639 21.202 11.3059C21.1439 11.2111 20.7893 10.4493 19.0779 8.88367C17.2866 7.24511 17.5264 7.51014 19.6843 4.67578C20.9984 2.94963 21.5238 1.8958 21.3597 1.44444C21.2032 1.01455 20.2367 1.12818 20.2367 1.12818L17.02 1.14793C17.02 1.14793 16.7815 1.11587 16.6046 1.22005C16.4318 1.32223 16.3206 1.56036 16.3206 1.56036C16.3206 1.56036 15.8115 2.89611 15.1325 4.03209C13.7002 6.42911 13.1274 6.55562 12.8934 6.40679C12.3488 6.0599 12.4847 5.01322 12.4847 4.26964C12.4847 1.94675 12.8422 0.978205 11.7886 0.727483C11.4389 0.644196 11.1816 0.589243 10.2874 0.58037C9.13968 0.568636 8.16822 0.583805 7.61816 0.849409C7.25223 1.026 6.96994 1.41954 7.14187 1.44215C7.35446 1.4702 7.83598 1.57009 8.09126 1.91269C8.42088 2.3546 8.40927 3.34718 8.40927 3.34718C8.40927 3.34718 8.59862 6.08165 7.96696 6.42139C7.53336 6.65436 6.93858 6.17868 5.6616 4.00404C5.00728 2.8901 4.51327 1.65882 4.51327 1.65882C4.51327 1.65882 4.41802 1.4287 4.24812 1.30563C4.04192 1.15651 3.75382 1.109 3.75382 1.109L0.697146 1.12875C0.697146 1.12875 0.238281 1.14135 0.0698369 1.33797C-0.0800202 1.51285 0.0579295 1.87462 0.0579295 1.87462C0.0579295 1.87462 2.451 7.39222 5.16062 10.1728C7.64517 12.7221 10.4666 12.5546 10.4666 12.5546Z" fill="#6A6454"/>
</svg>

<svg width="22" height="13" fill="none" xmlns="http://www.w3.org/2000/svg"><path fill-rule="evenodd" clip-rule="evenodd" d="M10.467 12.555h1.278s.387-.042.584-.252c.181-.192.175-.553.175-.553s-.024-1.691.772-1.94c.785-.245 1.793 1.634 2.861 2.357.808.547 1.422.427 1.422.427l2.857-.04s1.495-.09.786-1.248c-.058-.095-.413-.857-2.124-2.422-1.791-1.639-1.552-1.374.606-4.208 1.314-1.726 1.84-2.78 1.676-3.232-.157-.43-1.123-.316-1.123-.316l-3.217.02s-.238-.032-.415.072c-.173.102-.284.34-.284.34s-.51 1.336-1.189 2.472C13.7 6.43 13.128 6.556 12.893 6.407c-.544-.347-.408-1.394-.408-2.137 0-2.323.357-3.292-.696-3.543-.35-.083-.607-.138-1.502-.147C9.14.57 8.168.584 7.618.85c-.366.176-.648.57-.476.592.212.028.694.128.95.47.329.443.317 1.435.317 1.435s.19 2.735-.442 3.074c-.434.233-1.028-.242-2.305-2.417-.655-1.114-1.149-2.345-1.149-2.345s-.095-.23-.265-.353a1.345 1.345 0 00-.494-.197l-3.057.02s-.459.012-.627.209c-.15.175-.012.537-.012.537S2.45 7.392 5.16 10.173c2.484 2.55 5.306 2.382 5.306 2.382z" fill="#6A6454"/></svg>
